icon-svg/airgradient-alt.svg

<svg xmlns="http://www.w3.org/2000/svg" viewBox="0 0 24 24"><path fill="#44739e" d="M9.661 16.476a9.2 9.2 0 0 0 11.316.078 9 9 0 0 0 1.023-.87V4.455A2.457 2.457 0 0 0 19.545 2H4.455A2.457 2.457 0 0 0 2 4.455v15.09A2.457 2.457 0 0 0 4.455 22h15.09A2.457 2.457 0 0 0 22 19.545v-1.686a10.8 10.8 0 0 1-3.718 1.926A9.71 9.71 0 0 1 7.8 16.406a7.34 7.34 0 0 1 .649-9.531 6.98 6.98 0 0 0-1.355 4.536 7.14 7.14 0 0 0 2.567 5.065m-4.656-3.407a8.5 8.5 0 0 0 3.641 6.441 9.78 9.78 0 0 0 6.462 1.665 9.24 9.24 0 0 1-4.254.155 9.5 9.5 0 0 1-4.769-2.547A9.55 9.55 0 0 1 3.834 9.4a8.91 8.91 0 0 1 7.789-6.434 6.726 6.726 0 0 1 7.04 5.2 6.4 6.4 0 0 0-2.836-3.288 6.57 6.57 0 0 0-5.178-.515 8.466 8.466 0 0 0-5.644 8.706"/></svg>

<?xml version="1.0" encoding="UTF-8"?>
<svg width="24px" fill="#44739e" height="24px" viewBox="0 0 24 24" version="1.1" xmlns="http://www.w3.org/2000/svg" xmlns:xlink="http://www.w3.org/1999/xlink">
            <path d="M 9.661,16.476 A 9.2,9.2 0 0 0 20.977,16.554 9.207,9.207 0 0 0 22,15.684 V 4.455 A 2.457,2.457 0 0 0 19.545,2 H 4.455 A 2.457,2.457 0 0 0 2,4.455 v 15.09 A 2.457,2.457 0 0 0 4.455,22 h 15.09 A 2.457,2.457 0 0 0 22,19.545 V 17.859 A 10.834,10.834 0 0 1 18.282,19.785 9.708,9.708 0 0 1 7.8,16.406 7.339,7.339 0 0 1 8.449,6.875 6.975,6.975 0 0 0 7.094,11.411 7.141,7.141 0 0 0 9.661,16.476 Z M 5.005,13.069 A 8.5,8.5 0 0 0 8.646,19.51 9.777,9.777 0 0 0 15.108,21.175 9.24,9.24 0 0 1 10.854,21.33 9.5,9.5 0 0 1 6.085,18.783 9.554,9.554 0 0 1 3.834,9.4 a 8.914,8.914 0 0 1 7.789,-6.434 6.726,6.726 0 0 1 7.04,5.2 6.4,6.4 0 0 0 -2.836,-3.288 6.569,6.569 0 0 0 -5.178,-0.515 8.466,8.466 0 0 0 -5.644,8.706 z"/>

</svg>
